X: 23961
T: Lochiel's Awa' Tae France
R: reel
M: 4/4
K: Adorian
a|eAEA eAdc|BG G/G/G B/c/d gf|eA A/A/A eAdc|BA c/B/A a/b/a ea|
eA A2 eAdA|BG G2 B<dd>f|egag egdg|BA A/A/A a2 eg||
dega bgab|gd d/d/d gddg|dega g/a/b ab|ge e/e/e a2 eg|
dega b/a/g ab|gd B/c/d gdga|b2 a/g/f e2 f/e/d|BA A/A/A a/b/a e||

